apps/site/public/icons/technologies/drizzle_light.svg

<svg width="48" height="48" viewBox="0 0 48 48" fill="none" xmlns="http://www.w3.org/2000/svg">
<path d="M12.5718 23.6964C13.0673 22.8319 12.7637 21.7372 11.8939 21.2513C11.024 20.7654 9.91724 21.0723 9.42184 21.9368L3.60654 32.0844C3.11114 32.9489 3.41469 34.0436 4.28454 34.5295C5.15439 35.0153 6.26115 34.7085 6.75655 33.844L12.5718 23.6964Z" fill="#161D2B"/>
<path d="M25.1065 15.9156C25.6019 15.0511 25.2984 13.9564 24.4285 13.4705C23.5587 12.9846 22.4519 13.2915 21.9565 14.156L16.1412 24.3036C15.6458 25.1681 15.9494 26.2628 16.8192 26.7487C17.6891 27.2346 18.7958 26.9277 19.2912 26.0632L25.1065 15.9156Z" fill="#161D2B"/>
<path d="M44.3936 15.9159C44.889 15.0515 44.5855 13.9568 43.7156 13.4709C42.8458 12.985 41.739 13.2919 41.2436 14.1563L35.4283 24.304C34.9329 25.1684 35.2365 26.2631 36.1063 26.749C36.9762 27.2349 38.0829 26.928 38.5783 26.0636L44.3936 15.9159Z" fill="#161D2B"/>
<path d="M31.8551 23.6964C32.3505 22.8319 32.0469 21.7372 31.1771 21.2513C30.3072 20.7654 29.2004 21.0723 28.705 21.9368L22.8897 32.0844C22.3943 32.9489 22.6979 34.0436 23.5677 34.5295C24.4376 35.0153 25.5444 34.7085 26.0398 33.844L31.8551 23.6964Z" fill="#161D2B"/>
</svg>

<svg xmlns="http://www.w3.org/2000/svg" width="48" height="48" fill="none" viewBox="0 0 48 48"><path fill="#161d2b" d="M12.572 23.696a1.78 1.78 0 0 0-.678-2.445 1.83 1.83 0 0 0-2.472.686L3.607 32.084a1.78 1.78 0 0 0 .678 2.445c.87.486 1.976.18 2.472-.685zm12.535-7.78a1.78 1.78 0 0 0-.678-2.446 1.83 1.83 0 0 0-2.472.686L16.14 24.304a1.78 1.78 0 0 0 .678 2.445c.87.486 1.977.179 2.472-.686zm19.287 0a1.78 1.78 0 0 0-.678-2.445 1.83 1.83 0 0 0-2.472.685l-5.816 10.148a1.78 1.78 0 0 0 .678 2.445c.87.486 1.977.179 2.472-.685zm-12.539 7.78a1.78 1.78 0 0 0-.678-2.445 1.83 1.83 0 0 0-2.472.686L22.89 32.084a1.78 1.78 0 0 0 .678 2.445c.87.486 1.976.18 2.472-.685z"/></svg>
